!!!SOCIAL_FUNCTION:	lightning songs
!!!PDT:	1932
!!!OTL: No_47_Song_of_Coyote.krn
!!!REG: Southwest
!!!LANG: Non-Tone
!!!LING_GROUP: Yuman-Cochimi
**kern
*staff1
=1-
*clefF4
*k[b-e-]
*M2/4
4r
8.r
16F\
=2
8F\L
8F\J
8F\
16r
16F\
=3
8F\L
8F\J
8E-\
16r
16E-\
=4
8E-\L
8E-\J
8F\
16r
16F\
=5
8F\L
8F\J
8F/L
16BB-/L
16BB-/JJ
=6
8F\L
16.F\L
32G\JJk
8F\
16r
16F\
=7
8F\L
8F\J
8F\
8r
=8!|:
16.BB-\LL
32F\K
16.F\
32E-\JJk
8F\L
8E-\J
=9
8F\L
16.F\L
32G-\JJk
8F\
16r
16F\
=10
8F\L
8F\J
8E-\
16r
16F\
=11
8F\L
8F\J
8E-\
8r
=12
16.BB-\LL
32F\K
16.F\
32E-\JJk
8F\L
8E-\J
=13
8F\L
16.F\L
32G-\JJk
8F\
16r
16F\
=14
8F\L
8F\J
8E-\
16r
16F\
=15
8F\L
8F\J
8E-\
8r
=16:|!
8F\L
8F\J
8E-\
16r
16F\
=17
8F\L
8F\J
8E-\
16r
16F\
=18
8F\L
8F\J
8F\
16r
16F\
=19
8F\L
16F\L
16G\JJ
8F\
16r
16F\
=20
4F\
8F\L
8E-\J
=21
4F\
8E-\
16r
16BB-/
=22
16.BB-\LL
32F\K
16.F\
32E-\JJk
8F\L
8E-\J
=23
8.F\L
16G\Jk
8F\
16r
16F\
=24
8F\L
8F\J
8F\
16r
16F\
=25
8F\L
8F\J
8F\
8r
==
*-
